X:1
B:Broadwood, L, 1893, English County Songs, London, Leadenhall Press
S:Arthur Thompson
Z: Lucy Broadwood
T:The Cheerful 'Arn
F: http://www.folkinfo.org/songs
M:6/8     %Meter
L:1/8     %
K:A
G |A2 A A2 F |E F D C2 E |F2 B G2 E |A z z z2
w:The cheer-ful 'arn he blaws in the marn, And we'll a-'unt-in' goo,
E |A2 A A2 F |E F D C2 E |F2 B G2 D |A z z z2
w:The cheer-ful 'arn he blaws in the marn, And we'll a-'unt-in' goo,
 A |c2 c A2 A |(d3 c2) B |A2 A (A G) A | (Bdc Bdc |B2-HB) z2
w:And we'll a-'unt-in' goo_ and we'll a-'unt -in' goo______
E |A2 A A2 F |E F D C D E | F2 B G2 E |A z z z2
w:Var all my van-cy dwells up-on Nan-cy and I'll sing Tal-ly-ho!
E |A2 A A2 F |E F D C D E | F2 B G2 E |A3- A z2 |]
w:Var all my van-cy dwells up-on Nan-cy, and I'll sing Tal-ly-ho!
W:The cheerful 'arn he blaws in the marn, And we'll a-'untin' goo,
W:The cheerful 'arn he blaws in the marn, And we'll a-'untin'goo, 
W: And we'll a-'untin' goo and we'll a-'untin' goo
W:Var all my vancy dwells upon Nancy and I'll sing Tally-ho!
W:Var all my vancy dwells upon Nancy, and I'll sing Tally-ho!
W:
W:The vox jumps awer the 'edge zo 'igh,
W:An' the 'ouns all atter un goo;
W:all my vancy dwells upon Nancy and I'll sing Tally-ho!
W:Var all my vancy dwells upon Nancy, and I'll sing Tally-ho!
W:
W:Then never despoise the soldjer lod,
W:Thof 'is ztation be boot low;
W:Var all my vancy dwells upon Nancy and I'll sing Tally-ho!
W:Var all my vancy dwells upon Nancy, and I'll sing Tally-ho!
W:
W:Then push about the the coop, my bwoys
W:An we will wumwards goo;
W:Var all my vancy dwells upon Nancy and I'll sing Tally-ho!
W:Var all my vancy dwells upon Nancy, and I'll sing Tally-ho!
W:
W:If you ax me the zenze of this zong vur to tell,
W:Or the reazon vur to show;
W:Woy I doan't exacaly knoo,
W:Woy I doan't exacaly knoo;
W:Var all my vancy dwells upon Nancy
W:And I'll zing Tally-ho!
